src/16/actions/folder-sync.svg

<svg xmlns="http://www.w3.org/2000/svg" width="16" height="16" version="1.1" id="svg7"><defs id="defs3"><style id="current-color-scheme" type="text/css"></style></defs><rect id="rect23" width="14" height="5" x="1" y="1" rx="1" ry="1" display="inline" opacity=".5" fill="#565656" fill-opacity="1" stroke="none" stroke-width="1" stroke-linecap="round" stroke-linejoin="miter" stroke-miterlimit="4" stroke-dasharray="none" stroke-opacity="1" paint-order="stroke markers fill"/><path d="M8 3L7 5H1c-.554 0-1 .446-1 1v8c0 .554.446 1 1 1h14c.554 0 1-.446 1-1V4c0-.5-.5-1-1-1H8zM7 6v6H5V9H4l3-3zm2 1h2v3h1l-3 3V7z" id="path4-3" display="inline" fill="#565656" fill-opacity="1" stroke="none"/></svg>

<?xml version="1.0" encoding="UTF-8" standalone="no"?>
<svg
   xmlns:dc="http://purl.org/dc/elements/1.1/"
   xmlns:cc="http://creativecommons.org/ns#"
   xmlns:rdf="http://www.w3.org/1999/02/22-rdf-syntax-ns#"
   xmlns:svg="http://www.w3.org/2000/svg"
   xmlns="http://www.w3.org/2000/svg"
   xmlns:sodipodi="http://sodipodi.sourceforge.net/DTD/sodipodi-0.dtd"
   xmlns:inkscape="http://www.inkscape.org/namespaces/inkscape"
   width="16"
   height="16"
   version="1.1"
   id="svg7"
   sodipodi:docname="folder-sync.svg"
   inkscape:version="0.92.4 (5da689c313, 2019-01-14)">
  <metadata
     id="metadata11">
    <rdf:RDF>
      <cc:Work
         rdf:about="">
        <dc:format>image/svg+xml</dc:format>
        <dc:type
           rdf:resource="http://purl.org/dc/dcmitype/StillImage" />
      </cc:Work>
    </rdf:RDF>
  </metadata>
  <sodipodi:namedview
     pagecolor="#ffffff"
     bordercolor="#666666"
     borderopacity="1"
     objecttolerance="10"
     gridtolerance="10"
     guidetolerance="10"
     inkscape:pageopacity="0"
     inkscape:pageshadow="2"
     inkscape:window-width="1366"
     inkscape:window-height="710"
     id="namedview9"
     showgrid="false"
     inkscape:zoom="29.5"
     inkscape:cx="5.0939394"
     inkscape:cy="6.6678162"
     inkscape:window-x="0"
     inkscape:window-y="28"
     inkscape:window-maximized="1"
     inkscape:current-layer="svg7" />
  <defs
     id="defs3">
    <style
       id="current-color-scheme"
       type="text/css">
   .ColorScheme-Text { color:#565656; } .ColorScheme-Highlight { color:#5294e2; }
  </style>
  </defs>
  <rect
     style="display:inline;opacity:0.5;fill:#565656;fill-opacity:1;stroke:none;stroke-width:1;stroke-linecap:round;stroke-linejoin:miter;stroke-miterlimit:4;stroke-dasharray:none;stroke-opacity:1;paint-order:stroke markers fill;enable-background:new"
     id="rect23"
     width="14"
     height="5"
     x="0.99980003"
     y="1"
     rx="1"
     ry="1" />
  <path
     style="display:inline;fill:#565656;fill-opacity:1;stroke:none;enable-background:new"
     d="M 8 3 L 7 5 L 1 5 C 0.446 5 0 5.446 0 6 L 0 14 C 0 14.554 0.446 15 1 15 L 15 15 C 15.554 15 16 14.554 16 14 L 16 8 L 16 6 L 16 4 C 16 3.5 15.5 3 15 3 L 8 3 z M 7 6 L 7 12 L 5 12 L 5 9 L 4 9 L 7 6 z M 9 7 L 11 7 L 11 10 L 12 10 L 9 13 L 9 7 z "
     id="path4-3" />
</svg>
